X: 17280
T: Hermione's
R: jig
M: 6/8
K: Eminor
|:"Em"dcB "D"AFD|"Em"GFE "B7"F2B,|"Em"EB,E "D7"FED|"G"GAG "B7"F3|
"Em"Bef "C"gfe|"B"fdB "Am"cBA|"Em"BGE "B"^DB,^A,|1 "B7"B,^C^D^ "Em"E3 ]:|2 "B7"B,^C^D^ "Em"E2F|
|:"Em"GFE "C"e2 f|"C"gfe "G"dBG|"D"DFA "D"d2e|"D"fed "D7"cBA|
"Em"GFG "D"AGA|"Em"BcB "D"A^FD|"Em"GFE "B"^DB,^A,|"B7"B,^C^D "Em"E3:|

